X: 131
M: 3/8
L: 1/8
K: G
|:\
e<TdG | A<Bc | de<d | cTB>c |\
d<gd | c<TBA |
d>ed | c<BA | GAD | D3 |\

